contributed-vectors/covpass.svg

<svg width="192" height="192" viewBox="0 0 192 192" fill="none" xmlns="http://www.w3.org/2000/svg">
<path fill-rule="evenodd" clip-rule="evenodd" d="M32.4761 45.1709C32.4761 40.7061 35.4359 36.8065 39.7289 35.5799L92.9118 20.3848C94.7074 19.8717 96.6107 19.8717 98.4062 20.3848L151.589 35.5799C155.882 36.8065 158.842 40.7056 158.842 45.1704V46.2016L138.383 50.8902L94.4556 94.8174L69.4833 69.8451L58.3511 80.9773L94.4556 117.082L158.842 52.6955V117.082C158.842 117.759 158.742 118.492 158.549 119.275C157.988 119.543 157.5 119.982 157.167 120.568C156.667 121.447 156.624 122.467 156.965 123.343C156.296 124.666 155.462 126.068 154.485 127.531C152.106 126.597 149.58 125.966 146.95 125.684V121.617C148.389 121.321 149.472 120.03 149.472 118.482C149.472 116.934 148.389 115.643 146.95 115.346V115.277H140.646V115.346C139.208 115.643 138.125 116.934 138.125 118.482C138.125 120.03 139.208 121.321 140.646 121.617V125.684C137.525 126.019 134.549 126.846 131.793 128.087L129.793 124.571C130.892 123.584 131.193 121.917 130.431 120.578C129.669 119.238 128.096 118.669 126.705 119.141L126.67 119.08L121.211 122.28L121.245 122.34C120.143 123.326 119.841 124.995 120.604 126.337C121.366 127.677 122.94 128.246 124.332 127.772L126.334 131.293C123.857 133.131 121.671 135.35 119.86 137.866L116.387 135.831C116.85 134.419 116.289 132.826 114.971 132.053C113.652 131.28 112.013 131.585 111.04 132.697L110.98 132.662L107.828 138.203L107.885 138.237C107.415 139.652 107.974 141.253 109.297 142.028C110.618 142.802 112.261 142.496 113.233 141.379L116.7 143.411C115.479 146.206 114.665 149.226 114.335 152.392H110.323C110.029 150.934 108.759 149.837 107.235 149.837C105.712 149.837 104.441 150.934 104.147 152.392H104.083V158.791H104.145C104.436 160.254 105.709 161.356 107.235 161.356C108.76 161.356 110.032 160.256 110.324 158.796H114.336C114.516 160.525 114.841 162.211 115.298 163.841C107.62 168.693 100.535 171.841 95.659 171.841C78.2085 171.841 32.476 133.374 32.4761 117.082L32.4761 45.1709Z" fill="#9ABEFF"/>
</svg>

<svg xmlns="http://www.w3.org/2000/svg" width="192" height="192" fill="none"><path fill="#9ABEFF" fill-rule="evenodd" d="M32.476 45.17a9.971 9.971 0 0 1 7.253-9.59l53.183-15.195a9.998 9.998 0 0 1 5.494 0L151.59 35.58a9.97 9.97 0 0 1 7.253 9.59v1.032l-20.459 4.688-43.927 43.927-24.973-24.972-11.132 11.132 36.105 36.105 64.386-64.386v64.386c0 .677-.1 1.41-.293 2.193a3.149 3.149 0 0 0-1.382 1.293 3.234 3.234 0 0 0-.202 2.775c-.669 1.323-1.503 2.725-2.48 4.188a29.078 29.078 0 0 0-7.535-1.847v-4.067c1.439-.296 2.522-1.587 2.522-3.135 0-1.548-1.083-2.839-2.522-3.136v-.069h-6.304v.069c-1.438.297-2.521 1.588-2.521 3.136s1.083 2.839 2.521 3.135v4.067a29.098 29.098 0 0 0-8.853 2.403l-2-3.516a3.234 3.234 0 0 0 .638-3.993 3.132 3.132 0 0 0-3.726-1.437l-.035-.061-5.459 3.2.034.06a3.234 3.234 0 0 0-.641 3.997 3.131 3.131 0 0 0 3.728 1.435l2.002 3.521a30.036 30.036 0 0 0-6.474 6.573l-3.473-2.035c.463-1.412-.098-3.005-1.416-3.778a3.12 3.12 0 0 0-3.931.644l-.06-.035-3.152 5.541.057.034c-.47 1.415.089 3.016 1.412 3.791a3.12 3.12 0 0 0 3.936-.649l3.467 2.032a30.246 30.246 0 0 0-2.365 8.981h-4.012c-.294-1.458-1.564-2.555-3.088-2.555-1.523 0-2.794 1.097-3.088 2.555h-.064v6.399h.062c.291 1.463 1.564 2.565 3.09 2.565 1.525 0 2.797-1.1 3.089-2.56h4.012c.18 1.729.505 3.415.962 5.045-7.678 4.852-14.763 8-19.639 8-17.45 0-63.183-38.467-63.183-54.759V45.171Z" clip-rule="evenodd"/></svg>
